X:452
T: Fangzhiminmtongzhi weiwanggao
N: C2070
O: China, Zhejiang Changshan
S: III, 619]
R: Xiaodiao]
M: 2/4
L: 1/16
K: G
G2GEG2B2 | A6B2 | d2d2B2A2 | G8
A2A4G2 | E2G2A2B2 | A2G2E2G2 | D8
E2EGE2G2 | G2E4D2 | E8
A2A4G2 | E2G2A2B2 | A2G2E2B,2 | D8

